!!!!SEGMENT: pl-wn--sd-xvi-qu-273--065_gomolka-mikolaj--krolu-na-ziemi-i-na-wielkim-niebie.krn
!!!cenid: 15xx:270
!!!COM: Gomółka, Mikołaj
!!!COM-rismid: pe30013343
!!!CDT: ~1535->1591/04/30
!!!CNT: Polish
!!!GTL: Melodiae na psalterz polski
!!!OTL: LXV. Królu na ziemi i na wielkim niebie,
!!!ONB: PSALM LXV. Te decet hymnus Deus in Syon: et tibi reddetur votum in Hierusalem.
!!!PDT: 1580
!!!AGN: Sacred
!!!SMS-siglum: PL-Wn
!!!SMS-shelfmark: SD XVI.Qu.273
!!!SMS-shelfwork: 065 G
!!!NIFC-rismid:
!!!ONB-nifc: Melodiae na psalterz polski
**kern	**text	**kern	**text	**kern	**text	**kern	**text
*part4	*part4	*part3	*part3	*part2	*part2	*part1	*part1
*staff4	*staff4	*staff3	*staff3	*staff2	*staff2	*staff1	*staff1
*clefF3	*	*clefC3	*	*clefC2	*	*clefG2	*
*k[b-B-]	*	*k[b-]	*	*k[b-]	*	*k[b-]	*
*e-:	*	*e-:	*	*e-:	*	*e-:	*
*M2/1	*	*M2/1	*	*M2/1	*	*M2/1	*
*met(C|)	*	*met(C|)	*	*met(C|)	*	*met(C|)	*
*I"BASSUS.	*	*I"TENOR.	*	*I"ALTUS.	*	*I"CANTUS.	*
=1-	=1	=1-	=1	=1-	=1	=1-	=1
!LO:TX:t=P:dwa bemole przy kluczu:problem	!	!	!	!	!	!	!
0D/	Kró-	0F/	Kró-	0A/	KRó-	0d/	KRó-
=2-	=2	=2-	=2	=2-	=2	=2-	=2
1C/	-lu	1G/	-lu	1c/	-lu	1e/	-lu
2.BB-/	ná	1.B-/	ná	1.d/	ná	1.f/	ná
4C/	źie-	.	.	.	.	.	.
=3-	=3	=3-	=3	=3-	=3	=3-	=3
1D/	-mi,	.	.	.	.	.	.
.	.	2A/	źie-	2d/	źie-	2f/	źie-
2D/	y	2A/	-mi,	2d/	-mi,	2f/	-mi,
2B-\	ná	2d\	y	2f\	y	2ff\	y
=4-	=4	=4-	=4	=4-	=4	=4-	=4
2.d\	wiel-	2.f\	ná	1b-\	na	2dd\	ná
.	.	.	.	.	.	4dd\	wiel-
4c\	-(kim)	4e\	wiel-	.	.	4ee\	-(kim)
2B-\	nie-	2d\	-(kim)	2.b-\	wiel-	2ff\	nie-
2B-\	-bie,	2d\	nie-	.	.	2ff\	-bie,
.	.	.	.	4a\	-kim	.	.
=5-	=5	=5-	=5	=5-	=5	=5-	=5
2c\	Chwa-	2e\	-bie,	2g\	nie-	2ee\	Chwa-
2c\	-łá	2e\	Chwa-	2g\	-bie,	2cc\	-łá:
2F/	w Si	2f\	-ła	2a\	Chwa-	2cc\	w Si-
2F/	-o-	2c/	w Si-	2f\	-(łá)	2cc\	-o-
=6-	=6	=6-	=6	=6-	=6	=6-	=6
1C/	-(nie)	2c/	-o-	2e/	w Si-	2.cc\	-nie
.	.	2G/	.	2c/	-o-	.	.
.	.	.	.	.	.	4b-/	.
2F/	.	2A/	-nie	2c/	-(nie)	2a/	.
2G\	wdźię-	1B-/	wdźię-	2g\	wdźię-	2dd\	wdźię-
=7-	=7	=7-	=7	=7-	=7	=7-	=7
!LO:SIC:s=1E-:v	!	!	!	!	!	!	!
1E/	-czna	.	.	1g\	-(czna)	1ee-X\	-(czna)
.	.	2c/	-czna	.	.	.	.
2.BB-/	cze-	2.d\	cze-	2f\	.	2dd\	.
.	.	.	.	2b-\	cze-	2dd\	cze-
4C/	.	4c/	.	.	.	.	.
=8-	=8	=8-	=8	=8-	=8	=8-	=8
!!LO:PB:g=original
4D/	-ka	2B-/	-ka	2.f\	-ka	2dd\	-ka
4E/	.	.	.	.	.	.	.
2F/	ćie-	2A/	ćie-	.	.	2cc\	ćie-
.	.	.	.	4e\	ćie-	.	.
2BB-/	-bie:	2B-/	-bie:	2d/	-bie:	2dd\	-bie:
2BB-/	Tám	2B-/	Tám	2f\	Tám	2dd\	Tám
=9-	=9	=9-	=9	=9-	=9	=9-	=9
2E/	o-	2B-/	o-	2g\	o-	2b-/	o-
2C/	-bie-	2e\	-bie-	2g\	-bie-	2cc\	-bie-
1GG/	-tni-	1d\	-tni-	2.g\	-tni-	1dd\	-tni-
.	.	.	.	4f\	.	.	.
=10-	=10	=10-	=10	=10-	=10	=10-	=10
2C/	-ce	2c/	-ce	2e/	-ce	2eeny\	-ce
1F\	to-	2.A/	two-	1f\	two-	1cc\	to-
.	.	4B-/	-ie	.	.	.	.
2F/	-bie	2c/	po-	2f\	-ie	2a/	-bie
=11-	=11	=11-	=11	=11-	=11	=11-	=11
2G\	po-	2B-/	-szlu-	2e/	po-	2b-/	po-
2A\	-szlu-	2e\	-bio-	2c/	-szlu-	2cc\	-szlu-
2B-\	-bio-	2d\	-né	8d/L	-bio-	1b-\	-bio-
.	.	.	.	8e/J	-né	.	.
.	.	.	.	2f\	.	.	.
2G\	-né	4c/	.	.	.	.	.
.	.	4B-/	Bę-	4e/	.	.	.
=12-	=12	=12-	=12	=12-	=12	=12-	=12
2F/	Bę-	2c/	.	2f\	Bę-	2a/	-né
2D/	-dą	2f\	-dą	4b-\	.	2f/	Bę-
.	.	.	.	4a\	-dą	.	.
!	!	!LO:SIC:s=2.e-:v	!	!	!	!	!
2E-X/	i-	2.e\	i-	4g\	.	4g/	.
.	.	.	.	4f\	.	4a/	-dą
2E-/	-szczo-	.	.	2g\	i-	1b-\	i-
.	.	4d\	-szczo-	.	.	.	.
=13-	=13	=13-	=13	=13-	=13	=13-	=13
1F\	-né.	4c/	.	2.f\	-szczo-	.	.
.	.	4B-/	.	.	.	.	.
.	.	2c/	-né	.	.	2a/	-szczo-
.	.	.	.	4e/	-né.	.	.
*000/left	*	*	*	*	*	*	*
000BB-/	.	000B-/	.	000d\	.	000b-\	-né.
==	==	==	==	==	==	==	==
*-	*-	*-	*-	*-	*-	*-	*-
!!!RDF**kern: l = terminal long
!!!system-decoration: s1,s2,s3,s4
!!!RDF**kern: > = above
!!!ENC: Marta Lawrence
!!!END: 2020-02-11
!!!URL-scan: https://polona.pl/item/melodiae-na-psalterz-polski,Nzk3MTM4ODQ/162 Scan on Polona
!!!IIIF: https://polona.pl/iiif/item/Nzk3MTM4ODQ/manifest.json
